icon/lg/languagetool.svg

<?xml version="1.0" encoding="UTF-8"?>
<svg viewBox="0 0 256 194" version="1.1" xmlns="http://www.w3.org/2000/svg" preserveAspectRatio="xMidYMid" height="1em" width="1em">
  <g>
    <path d="M36.4518555,0 L61.3021322,0 C66.2572501,0 71.0094192,1.96841291 74.5132167,5.47221035 C78.0170141,8.9760078 79.985427,13.7281769 79.985427,18.6832948 L79.985427,91.1744786 L128.561994,91.1744786 L128.561994,117.331091 L72.5121091,117.331091 C62.1936103,117.331091 53.8288143,108.966295 53.8288143,98.6477965 L53.8288143,26.1566127 L36.4518555,26.1566127 L36.4518555,0 L36.4518555,0 Z M226.462458,18.6832948 L226.462458,38.1139214 L200.305846,38.1139214 L200.305846,26.1566127 L179.751232,26.1566127 L179.751232,117.331091 L153.594619,117.331091 L153.594619,26.1566127 L133.045984,26.1566127 L133.045984,38.1139214 L106.889372,38.1139214 L106.889372,18.6832948 C106.889372,8.364796 115.254168,0 125.572666,0 L207.779163,0 C218.097662,0 226.462458,8.364796 226.462458,18.6832948 Z" fill="#000000"/>
    <path d="M24.3271445,187.484621 L0,170.110652 C7.14449193,160.105374 14.5191621,152.366006 22.2764661,146.934398 C30.8976856,140.901936 40.056984,137.694388 49.5301618,137.694388 C58.3247624,137.694388 65.9445573,139.828768 72.7512553,143.912189 C75.5303418,145.599899 78.1472063,147.541282 80.5683458,149.711483 C82.3290595,151.259955 83.5845769,152.4796 86.2570354,155.152059 C90.3075737,159.199608 91.9875756,160.685303 94.0023821,161.892991 C96.1875803,163.205306 98.4953409,163.851001 101.843387,163.851001 C105.194423,163.851001 107.511152,163.202317 109.708307,161.887013 C111.732082,160.676335 113.430019,159.181672 117.480558,155.140101 L117.51643,155.104229 C120.176931,152.449707 121.444406,151.221093 123.20213,149.672622 C125.619648,147.510707 128.231426,145.57639 131.004274,143.894253 C137.799014,139.822789 145.394895,137.694388 154.156613,137.694388 C162.918331,137.694388 170.514211,139.822789 177.308952,143.894253 C180.047175,145.538382 182.564189,147.430627 185.111096,149.672622 C186.871809,151.221093 188.139284,152.449707 190.796796,155.104229 L190.835657,155.140101 C194.883206,159.181672 196.581144,160.676335 198.604918,161.887013 C200.802074,163.202317 203.118802,163.851001 206.469838,163.851001 C209.453187,163.851001 212.747425,162.69712 216.582732,160.012705 C221.281954,156.724445 226.36381,151.385506 231.672856,143.954039 L256,161.328009 C248.852519,171.333287 241.480838,179.072655 233.723534,184.504262 C225.102314,190.536724 215.943016,193.744272 206.469838,193.744272 C197.678227,193.744272 190.058432,191.612882 183.245755,187.532451 C180.462819,185.847182 177.841944,183.907795 175.416708,181.739134 C173.653005,180.187674 172.38254,178.95906 169.71905,176.298559 L169.680189,176.259698 C165.641608,172.230085 163.949649,170.7414 161.937831,169.533712 C159.761601,168.230365 157.471777,167.58766 154.156613,167.58766 C150.841449,167.58766 148.551624,168.230365 146.375394,169.533712 C144.363577,170.7414 142.671618,172.230085 138.633037,176.259698 L138.597165,176.298559 C135.930685,178.95906 134.660221,180.187674 132.896518,181.739134 C130.340643,183.987109 127.814662,185.888321 125.064481,187.532451 C118.254793,191.612882 110.637988,193.744272 101.843387,193.744272 C93.0487868,193.744272 85.4319811,191.609893 78.6222938,187.526472 C75.8436357,185.839256 73.2268159,183.898906 70.8052033,181.730167 C69.0474789,180.178706 67.7889722,178.95906 65.119503,176.289591 C61.0689647,172.239053 59.3859735,170.753357 57.371167,169.545669 C55.1859688,168.233354 52.8782083,167.58766 49.5301618,167.58766 C46.5468133,167.58766 43.2525748,168.74154 39.417268,171.425956 C34.7180457,174.714216 29.6361895,180.053154 24.3271445,187.484621 Z" fill="#239AFF"/>
  </g>
</svg>

<svg width="256" height="194" xmlns="http://www.w3.org/2000/svg" preserveAspectRatio="xMidYMid"><path d="M36.452 0h24.85a18.683 18.683 0 0 1 18.683 18.683v72.491h48.577v26.157h-56.05c-10.318 0-18.683-8.365-18.683-18.683V26.157H36.452V0Zm190.01 18.683v19.43h-26.156V26.158H179.75v91.174h-26.156V26.157h-20.549v11.957h-26.157v-19.43C106.89 8.363 115.254 0 125.573 0h82.206c10.319 0 18.683 8.365 18.683 18.683Z"/><path d="M24.327 187.485 0 170.11c7.144-10.006 14.52-17.745 22.276-23.177 8.622-6.032 17.781-9.24 27.254-9.24 8.795 0 16.415 2.135 23.221 6.218a52.678 52.678 0 0 1 7.817 5.8c1.761 1.548 3.017 2.768 5.689 5.44 4.05 4.048 5.73 5.533 7.745 6.741 2.186 1.312 4.493 1.958 7.841 1.958 3.351 0 5.668-.649 7.865-1.964 2.024-1.21 3.722-2.705 7.773-6.747l.035-.036c2.66-2.654 3.928-3.883 5.686-5.431a52.74 52.74 0 0 1 7.802-5.779c6.795-4.071 14.39-6.2 23.153-6.2 8.761 0 16.357 2.129 23.152 6.2 2.738 1.644 5.255 3.537 7.802 5.779 1.76 1.548 3.028 2.777 5.686 5.431l.039.036c4.047 4.042 5.745 5.536 7.769 6.747 2.197 1.315 4.514 1.964 7.865 1.964 2.983 0 6.277-1.154 10.113-3.838 4.699-3.289 9.78-8.627 15.09-16.059L256 161.328c-7.147 10.005-14.52 17.745-22.276 23.176-8.622 6.033-17.781 9.24-27.254 9.24-8.792 0-16.412-2.131-23.224-6.212a52.693 52.693 0 0 1-7.83-5.793c-1.763-1.551-3.033-2.78-5.697-5.44l-.039-.04c-4.038-4.029-5.73-5.518-7.742-6.725-2.176-1.304-4.466-1.946-7.781-1.946-3.316 0-5.605.642-7.782 1.946-2.011 1.207-3.703 2.696-7.742 6.726l-.036.039c-2.666 2.66-3.937 3.889-5.7 5.44-2.556 2.248-5.082 4.15-7.833 5.793-6.81 4.08-14.426 6.212-23.22 6.212-8.795 0-16.412-2.134-23.222-6.218a52.774 52.774 0 0 1-7.817-5.796c-1.758-1.551-3.016-2.77-5.685-5.44-4.051-4.05-5.734-5.537-7.749-6.744-2.185-1.313-4.493-1.958-7.84-1.958-2.984 0-6.278 1.154-10.114 3.838-4.699 3.288-9.78 8.627-15.09 16.059Z" fill="#239AFF"/></svg>
